justvector/designfloat.svg

<?xml version="1.0" encoding="iso-8859-1"?>
<!-- Generator: Adobe Illustrator 15.0.0, SVG Export Plug-In . SVG Version: 6.00 Build 0)  -->
<!DOCTYPE svg PUBLIC "-//W3C//DTD SVG 1.1//EN" "http://www.w3.org/Graphics/SVG/1.1/DTD/svg11.dtd">
<svg version="1.1" id="Icons" xmlns="http://www.w3.org/2000/svg" xmlns:xlink="http://www.w3.org/1999/xlink" x="0px" y="0px"
	 width="100px" height="100px" viewBox="0 0 100 100" style="enable-background:new 0 0 100 100;" xml:space="preserve">
<path id="DesignFloat" d="M56,27.779v-8.812C68,21.738,76.652,30,79.411,43h-8.769C68.37,35,63,30.062,56,27.779z M43,27.772v-8.805
	C29,21.738,21.646,30,18.886,43h8.773C29.934,35,36,30.062,43,27.772z M27.659,55h-8.773C21.649,70,29,76.971,43,79.74v-8.805
	C36,68.654,29.938,62,27.659,55z M88.939,49.36c0,22.064-17.811,39.951-39.786,39.951c-21.974,0-39.787-17.887-39.787-39.951
	c0-22.069,17.813-39.95,39.787-39.95C71.129,9.41,88.939,27.291,88.939,49.36z M84.953,49.355c0-19.854-16.03-35.953-35.803-35.953
	c-19.775,0-35.802,16.1-35.802,35.953c0,19.857,16.026,35.945,35.802,35.945C68.923,85.301,84.953,69.213,84.953,49.355z
	 M49.15,67.567c-10.02-0.012-18.123-8.154-18.142-18.207c0.019-10.065,8.122-18.2,18.142-18.22
	c10.023,0.02,18.122,8.154,18.138,18.22C67.272,59.413,59.174,67.556,49.15,67.567z M63.26,49.36
	c0-7.827-6.313-14.175-14.106-14.175S35.042,41.533,35.042,49.36c0,7.822,6.317,14.163,14.111,14.163S63.26,57.183,63.26,49.36z
	 M56,70.936v8.805C68,76.971,76.652,70,79.411,55h-8.769C68.366,62,63,68.654,56,70.936z M90.203,72.673
	c-2.435,0-4.411,1.982-4.411,4.428s1.977,4.428,4.411,4.428c2.434,0,4.403-1.982,4.403-4.428S92.637,72.673,90.203,72.673z
	 M79.547,83.959c-3.115,0-5.635,2.53-5.635,5.659c0,3.12,2.52,5.656,5.635,5.656c3.107,0,5.634-2.536,5.634-5.656
	C85.181,86.489,82.654,83.959,79.547,83.959z M88.798,58.288c-1.418,0-2.572,1.158-2.572,2.582s1.154,2.581,2.572,2.581
	c1.425,0,2.576-1.157,2.576-2.581S90.223,58.288,88.798,58.288z M10.813,88.232c-1.566,0-2.831,1.274-2.831,2.841
	c0,1.575,1.265,2.85,2.831,2.85c1.56,0,2.829-1.274,2.829-2.85C13.643,89.507,12.373,88.232,10.813,88.232z M9.923,73.282
	c-1.495,0-2.707,1.211-2.707,2.713c0,1.495,1.212,2.717,2.707,2.717c1.496,0,2.701-1.222,2.701-2.717
	C12.624,74.493,11.419,73.282,9.923,73.282z M18.762,80.124c-2.001,0-3.626,1.631-3.626,3.642c0,2.015,1.625,3.641,3.626,3.641
	c2.008,0,3.627-1.626,3.627-3.641C22.389,81.755,20.77,80.124,18.762,80.124z M90.231,24.983c-1.042,0-1.884,0.845-1.884,1.898
	c0,1.04,0.842,1.893,1.884,1.893c1.047,0,1.891-0.853,1.891-1.893C92.122,25.828,91.278,24.983,90.231,24.983z M7.792,17.019
	c-1.754,0-3.186,1.431-3.186,3.199c0,1.761,1.432,3.192,3.186,3.192c1.761,0,3.187-1.432,3.187-3.192
	C10.979,18.449,9.553,17.019,7.792,17.019z M15.103,5.274c-2.215,0-4.002,1.795-4.002,4.019c0,2.217,1.787,4.011,4.002,4.011
	c2.209,0,3.997-1.794,3.997-4.011C19.1,7.069,17.312,5.274,15.103,5.274z M8.832,30.172c-1.111,0-2.008,0.903-2.008,2.017
	c0,1.11,0.896,2.016,2.008,2.016c1.109,0,2.01-0.905,2.01-2.016C10.842,31.075,9.941,30.172,8.832,30.172z"/>
</svg>

<?xml version="1.0" encoding="UTF-8" standalone="no"?>
<!DOCTYPE svg PUBLIC "-//W3C//DTD SVG 1.1//EN" "http://www.w3.org/Graphics/SVG/1.1/DTD/svg11.dtd">
<svg width="100%" height="100%" viewBox="0 0 100 100" version="1.1" xmlns="http://www.w3.org/2000/svg" xmlns:xlink="http://www.w3.org/1999/xlink" xml:space="preserve" xmlns:serif="http://www.serif.com/" style="fill-rule:evenodd;clip-rule:evenodd;stroke-linejoin:round;stroke-miterlimit:2;">
    <path id="DesignFloat" d="M67.973,30.737C65.397,29.164 56,18.967 56,18.967C68,21.738 76.652,30 79.411,43C79.411,43 75.515,35.343 67.973,30.737ZM30.771,28.428C36.038,26.576 43,18.967 43,18.967C29,21.738 21.646,30 18.886,43C18.886,43 22.445,31.356 30.771,28.428ZM43,79.74C43,79.74 32.928,70.706 28.122,67.318C22.361,63.257 18.886,55 18.886,55C21.649,70 29,76.971 43,79.74ZM67.288,49.36C67.272,59.413 31.027,59.413 31.008,49.36C31.027,39.295 39.13,31.16 49.15,31.14C59.173,31.16 67.272,39.294 67.288,49.36ZM63.26,49.36C63.26,41.533 56.947,35.185 49.154,35.185C41.361,35.185 35.042,41.533 35.042,49.36C35.042,57.182 63.26,57.183 63.26,49.36ZM68.103,66.61C63.455,69.998 56,79.741 56,79.741C68,76.971 76.652,70 79.411,55C79.411,55 73.674,62.549 68.103,66.61ZM90.203,72.673C87.768,72.673 85.792,74.655 85.792,77.101C85.792,79.547 87.769,81.529 90.203,81.529C92.637,81.529 94.606,79.547 94.606,77.101C94.606,74.655 92.637,72.673 90.203,72.673ZM79.547,83.959C76.432,83.959 73.912,86.489 73.912,89.618C73.912,92.738 76.432,95.274 79.547,95.274C82.654,95.274 85.181,92.738 85.181,89.618C85.181,86.489 82.654,83.959 79.547,83.959ZM10.813,88.232C9.247,88.232 7.982,89.506 7.982,91.073C7.982,92.648 9.247,93.923 10.813,93.923C12.373,93.923 13.642,92.649 13.642,91.073C13.643,89.507 12.373,88.232 10.813,88.232ZM9.923,73.282C8.428,73.282 7.216,74.493 7.216,75.995C7.216,77.49 8.428,78.712 9.923,78.712C11.419,78.712 12.624,77.49 12.624,75.995C12.624,74.493 11.419,73.282 9.923,73.282ZM18.762,80.124C16.761,80.124 15.136,81.755 15.136,83.766C15.136,85.781 16.761,87.407 18.762,87.407C20.77,87.407 22.389,85.781 22.389,83.766C22.389,81.755 20.77,80.124 18.762,80.124ZM90.231,24.983C89.189,24.983 88.347,25.828 88.347,26.881C88.347,27.921 89.189,28.774 90.231,28.774C91.278,28.774 92.122,27.921 92.122,26.881C92.122,25.828 91.278,24.983 90.231,24.983ZM7.792,17.019C6.038,17.019 4.606,18.45 4.606,20.218C4.606,21.979 6.038,23.41 7.792,23.41C9.553,23.41 10.979,21.978 10.979,20.218C10.979,18.449 9.553,17.019 7.792,17.019ZM15.103,5.274C12.888,5.274 11.101,7.069 11.101,9.293C11.101,11.51 12.888,13.304 15.103,13.304C17.312,13.304 19.1,11.51 19.1,9.293C19.1,7.069 17.312,5.274 15.103,5.274ZM8.832,30.172C7.721,30.172 6.824,31.075 6.824,32.189C6.824,33.299 7.72,34.205 8.832,34.205C9.941,34.205 10.842,33.3 10.842,32.189C10.842,31.075 9.941,30.172 8.832,30.172Z" style="fill-rule:nonzero;"/>
</svg>
